images/16759300.svg

<?xml version="1.0" encoding="UTF-8"?>
<svg xmlns="http://www.w3.org/2000/svg" xmlns:xlink="http://www.w3.org/1999/xlink" width="300pt" height="300pt" viewBox="0 0 300 300" version="1.1">
<defs>
<g>
<symbol overflow="visible" id="glyph0-0">
<path style="stroke:none;" d="M 0.546875 1.9375 L 0.546875 -7.75 L 6.046875 -7.75 L 6.046875 1.9375 Z M 1.171875 1.328125 L 5.4375 1.328125 L 5.4375 -7.140625 L 1.171875 -7.140625 Z M 1.171875 1.328125 "/>
</symbol>
<symbol overflow="visible" id="glyph0-1">
<path style="stroke:none;" d="M 4.328125 -7.28125 C 3.546875 -7.28125 2.921875 -6.984375 2.453125 -6.390625 C 1.992188 -5.804688 1.765625 -5.007812 1.765625 -4 C 1.765625 -2.988281 1.992188 -2.1875 2.453125 -1.59375 C 2.921875 -1.007812 3.546875 -0.71875 4.328125 -0.71875 C 5.117188 -0.71875 5.742188 -1.007812 6.203125 -1.59375 C 6.660156 -2.1875 6.890625 -2.988281 6.890625 -4 C 6.890625 -5.007812 6.660156 -5.804688 6.203125 -6.390625 C 5.742188 -6.984375 5.117188 -7.28125 4.328125 -7.28125 Z M 4.328125 -8.171875 C 5.453125 -8.171875 6.351562 -7.789062 7.03125 -7.03125 C 7.707031 -6.28125 8.046875 -5.269531 8.046875 -4 C 8.046875 -2.738281 7.707031 -1.726562 7.03125 -0.96875 C 6.351562 -0.21875 5.453125 0.15625 4.328125 0.15625 C 3.203125 0.15625 2.300781 -0.21875 1.625 -0.96875 C 0.957031 -1.71875 0.625 -2.726562 0.625 -4 C 0.625 -5.269531 0.957031 -6.28125 1.625 -7.03125 C 2.300781 -7.789062 3.203125 -8.171875 4.328125 -8.171875 Z M 4.328125 -8.171875 "/>
</symbol>
<symbol overflow="visible" id="glyph0-2">
<path style="stroke:none;" d="M 1.078125 -8.015625 L 2.171875 -8.015625 L 2.171875 -4.734375 L 6.109375 -4.734375 L 6.109375 -8.015625 L 7.1875 -8.015625 L 7.1875 0 L 6.109375 0 L 6.109375 -3.8125 L 2.171875 -3.8125 L 2.171875 0 L 1.078125 0 Z M 1.078125 -8.015625 "/>
</symbol>
</g>
</defs>
<g id="surface43249">
<rect x="0" y="0" width="300" height="300" style="fill:rgb(100%,100%,100%);fill-opacity:1;stroke:none;"/>
<path style="fill:none;stroke-width:1.2;stroke-linecap:butt;stroke-linejoin:miter;stroke:rgb(0%,0%,0%);stroke-opacity:1;stroke-miterlimit:10;" d="M 203.613281 199.621094 L 178.800781 188.367188 "/>
<path style="fill:none;stroke-width:1.2;stroke-linecap:butt;stroke-linejoin:miter;stroke:rgb(0%,0%,0%);stroke-opacity:1;stroke-miterlimit:10;" d="M 178.800781 188.367188 L 156.648438 204.230469 "/>
<path style="fill:none;stroke-width:1.2;stroke-linecap:butt;stroke-linejoin:miter;stroke:rgb(0%,0%,0%);stroke-opacity:1;stroke-miterlimit:10;" d="M 156.648438 204.230469 L 159.308594 231.34375 "/>
<path style="fill:none;stroke-width:1.2;stroke-linecap:butt;stroke-linejoin:miter;stroke:rgb(0%,0%,0%);stroke-opacity:1;stroke-miterlimit:10;" d="M 156.648438 204.230469 L 131.835938 192.976562 "/>
<path style="fill:none;stroke-width:1.2;stroke-linecap:butt;stroke-linejoin:miter;stroke:rgb(0%,0%,0%);stroke-opacity:1;stroke-miterlimit:10;" d="M 129.972656 190.367188 L 118.894531 198.300781 "/>
<path style="fill:none;stroke-width:1.2;stroke-linecap:butt;stroke-linejoin:miter;stroke:rgb(100%,0%,0%);stroke-opacity:1;stroke-miterlimit:10;" d="M 118.894531 198.300781 L 107.820312 206.230469 "/>
<path style="fill:none;stroke-width:1.2;stroke-linecap:butt;stroke-linejoin:miter;stroke:rgb(0%,0%,0%);stroke-opacity:1;stroke-miterlimit:10;" d="M 133.703125 195.582031 L 122.628906 203.511719 "/>
<path style="fill:none;stroke-width:1.2;stroke-linecap:butt;stroke-linejoin:miter;stroke:rgb(100%,0%,0%);stroke-opacity:1;stroke-miterlimit:10;" d="M 122.628906 203.511719 L 111.550781 211.441406 "/>
<path style="fill:none;stroke-width:1.2;stroke-linecap:butt;stroke-linejoin:miter;stroke:rgb(0%,0%,0%);stroke-opacity:1;stroke-miterlimit:10;" d="M 131.835938 192.976562 L 130.507812 179.417969 "/>
<path style="fill:none;stroke-width:1.2;stroke-linecap:butt;stroke-linejoin:miter;stroke:rgb(100%,0%,0%);stroke-opacity:1;stroke-miterlimit:10;" d="M 130.507812 179.417969 L 129.175781 165.859375 "/>
<path style=" stroke:none;fill-rule:nonzero;fill:rgb(100%,100%,100%);fill-opacity:1;" d="M 100.683594 202.335938 L 109.683594 202.335938 L 109.683594 215.335938 L 100.683594 215.335938 Z M 100.683594 202.335938 "/>
<g style="fill:rgb(100%,0%,0%);fill-opacity:1;">
  <use xlink:href="#glyph0-1" x="100.683594" y="212.237305"/>
</g>
<path style=" stroke:none;fill-rule:nonzero;fill:rgb(0%,0%,0%);fill-opacity:1;" d="M 104.367188 154.605469 L 127.191406 170.238281 L 131.164062 161.480469 Z M 104.367188 154.605469 "/>
<path style=" stroke:none;fill-rule:nonzero;fill:rgb(100%,100%,100%);fill-opacity:1;" d="M 125.175781 159.359375 L 134.175781 159.359375 L 134.175781 172.359375 L 125.175781 172.359375 Z M 125.175781 159.359375 "/>
<g style="fill:rgb(100%,0%,0%);fill-opacity:1;">
  <use xlink:href="#glyph0-1" x="125.175781" y="169.260742"/>
</g>
<path style="fill:none;stroke-width:1.2;stroke-linecap:butt;stroke-linejoin:miter;stroke:rgb(0%,0%,0%);stroke-opacity:1;stroke-miterlimit:10;" d="M 104.367188 154.605469 L 82.214844 170.46875 "/>
<path style="fill:none;stroke-width:1.2;stroke-linecap:butt;stroke-linejoin:miter;stroke:rgb(0%,0%,0%);stroke-opacity:1;stroke-miterlimit:10;" d="M 101.707031 127.492188 L 104.367188 154.605469 "/>
<path style="fill:none;stroke-width:1.2;stroke-linecap:butt;stroke-linejoin:miter;stroke:rgb(0%,0%,0%);stroke-opacity:1;stroke-miterlimit:10;" d="M 82.214844 170.46875 L 57.402344 159.214844 "/>
<path style="fill:none;stroke-width:1.2;stroke-linecap:butt;stroke-linejoin:miter;stroke:rgb(0%,0%,0%);stroke-opacity:1;stroke-miterlimit:10;" d="M 57.402344 159.214844 L 54.742188 132.097656 "/>
<path style=" stroke:none;fill-rule:nonzero;fill:rgb(0%,0%,0%);fill-opacity:1;" d="M 57.402344 159.214844 L 32.449219 171.164062 L 38.050781 178.984375 Z M 57.402344 159.214844 "/>
<path style="fill:none;stroke-width:1.2;stroke-linecap:butt;stroke-linejoin:miter;stroke:rgb(0%,0%,0%);stroke-opacity:1;stroke-miterlimit:10;" d="M 54.742188 132.097656 L 76.894531 116.238281 "/>
<path style="fill:none;stroke-width:1.2;stroke-linecap:butt;stroke-linejoin:miter;stroke:rgb(0%,0%,0%);stroke-opacity:1;stroke-miterlimit:10;" d="M 60.691406 135.726562 L 78.410156 123.035156 "/>
<path style="fill:none;stroke-width:1.2;stroke-linecap:butt;stroke-linejoin:miter;stroke:rgb(0%,0%,0%);stroke-opacity:1;stroke-miterlimit:10;" d="M 76.894531 116.238281 L 101.707031 127.492188 "/>
<path style="fill:none;stroke-width:1.2;stroke-linecap:butt;stroke-linejoin:miter;stroke:rgb(0%,0%,0%);stroke-opacity:1;stroke-miterlimit:10;" d="M 74.234375 89.125 L 76.894531 116.238281 "/>
<path style="fill:none;stroke-width:1.2;stroke-linecap:butt;stroke-linejoin:miter;stroke:rgb(0%,0%,0%);stroke-opacity:1;stroke-miterlimit:10;" d="M 101.707031 127.492188 L 123.859375 111.632812 "/>
<path style="fill:none;stroke-width:1.2;stroke-linecap:butt;stroke-linejoin:miter;stroke:rgb(0%,0%,0%);stroke-opacity:1;stroke-miterlimit:10;" d="M 123.859375 111.632812 L 121.199219 84.515625 "/>
<path style="fill:none;stroke-width:1;stroke-linecap:butt;stroke-linejoin:miter;stroke:rgb(0%,0%,0%);stroke-opacity:1;stroke-miterlimit:10;" d="M 123.859375 111.632812 L 123.859375 111.632812 M 126.332031 113.328125 L 126.765625 112.378906 M 128.808594 115.023438 L 129.671875 113.121094 M 131.285156 116.71875 L 132.574219 113.867188 M 133.757812 118.410156 L 135.480469 114.613281 M 136.234375 120.105469 L 138.386719 115.359375 M 138.710938 121.800781 L 141.292969 116.105469 M 141.183594 123.496094 L 144.199219 116.851562 M 143.660156 125.191406 L 147.105469 117.597656 M 146.136719 126.886719 L 150.011719 118.339844 M 146.683594 127.265625 L 150.65625 118.507812 "/>
<path style="fill:none;stroke-width:1.2;stroke-linecap:butt;stroke-linejoin:miter;stroke:rgb(0%,0%,0%);stroke-opacity:1;stroke-miterlimit:10;" d="M 121.199219 84.515625 L 96.386719 73.261719 "/>
<path style="fill:none;stroke-width:1;stroke-linecap:butt;stroke-linejoin:miter;stroke:rgb(0%,0%,0%);stroke-opacity:1;stroke-miterlimit:10;" d="M 121.199219 84.515625 L 121.199219 84.515625 M 123.90625 83.222656 L 123.296875 82.371094 M 126.609375 81.925781 L 125.394531 80.230469 M 129.316406 80.628906 L 127.496094 78.085938 M 132.019531 79.332031 L 129.59375 75.941406 M 134.726562 78.035156 L 131.691406 73.796875 M 137.433594 76.742188 L 133.789062 71.652344 M 140.136719 75.445312 L 135.890625 69.511719 M 142.84375 74.148438 L 137.988281 67.367188 M 145.550781 72.851562 L 140.085938 65.222656 M 146.148438 72.566406 L 140.550781 64.746094 "/>
<path style="fill:none;stroke-width:1.2;stroke-linecap:butt;stroke-linejoin:miter;stroke:rgb(0%,0%,0%);stroke-opacity:1;stroke-miterlimit:10;" d="M 96.386719 73.261719 L 74.234375 89.125 "/>
<path style="fill:none;stroke-width:1.2;stroke-linecap:butt;stroke-linejoin:miter;stroke:rgb(0%,0%,0%);stroke-opacity:1;stroke-miterlimit:10;" d="M 97.902344 80.0625 L 80.183594 92.75 "/>
<path style="fill:none;stroke-width:1.2;stroke-linecap:butt;stroke-linejoin:miter;stroke:rgb(0%,0%,0%);stroke-opacity:1;stroke-miterlimit:10;" d="M 148.671875 122.886719 L 170.824219 107.023438 "/>
<path style="fill:none;stroke-width:1;stroke-linecap:butt;stroke-linejoin:miter;stroke:rgb(0%,0%,0%);stroke-opacity:1;stroke-miterlimit:10;" d="M 195.632812 118.277344 L 195.632812 118.277344 M 193.160156 116.582031 L 192.726562 117.535156 M 190.683594 114.886719 L 189.824219 116.789062 M 188.207031 113.195312 L 186.917969 116.042969 M 185.734375 111.5 L 184.011719 115.296875 M 183.257812 109.804688 L 181.105469 114.550781 M 180.78125 108.109375 L 178.199219 113.804688 M 178.308594 106.414062 L 175.292969 113.058594 M 175.832031 104.71875 L 172.386719 112.3125 M 173.359375 103.023438 L 169.480469 111.570312 M 172.808594 102.644531 L 168.835938 111.402344 "/>
<path style="fill:none;stroke-width:1.2;stroke-linecap:butt;stroke-linejoin:miter;stroke:rgb(0%,0%,0%);stroke-opacity:1;stroke-miterlimit:10;" d="M 195.632812 118.277344 L 217.785156 102.417969 "/>
<path style="fill:none;stroke-width:1.2;stroke-linecap:butt;stroke-linejoin:miter;stroke:rgb(100%,0%,0%);stroke-opacity:1;stroke-miterlimit:10;" d="M 198.292969 145.394531 L 196.964844 131.835938 "/>
<path style="fill:none;stroke-width:1.2;stroke-linecap:butt;stroke-linejoin:miter;stroke:rgb(0%,0%,0%);stroke-opacity:1;stroke-miterlimit:10;" d="M 196.964844 131.835938 L 195.632812 118.277344 "/>
<path style="fill:none;stroke-width:1.2;stroke-linecap:butt;stroke-linejoin:miter;stroke:rgb(0%,0%,0%);stroke-opacity:1;stroke-miterlimit:10;" d="M 217.785156 102.417969 L 242.597656 113.671875 "/>
<path style="fill:none;stroke-width:1.2;stroke-linecap:butt;stroke-linejoin:miter;stroke:rgb(0%,0%,0%);stroke-opacity:1;stroke-miterlimit:10;" d="M 242.597656 113.671875 L 245.257812 140.785156 "/>
<path style=" stroke:none;fill-rule:nonzero;fill:rgb(0%,0%,0%);fill-opacity:1;" d="M 242.597656 113.671875 L 267.550781 101.722656 L 261.949219 93.902344 Z M 242.597656 113.671875 "/>
<path style="fill:none;stroke-width:1.2;stroke-linecap:butt;stroke-linejoin:miter;stroke:rgb(0%,0%,0%);stroke-opacity:1;stroke-miterlimit:10;" d="M 245.257812 140.785156 L 223.105469 156.648438 "/>
<path style="fill:none;stroke-width:1.2;stroke-linecap:butt;stroke-linejoin:miter;stroke:rgb(0%,0%,0%);stroke-opacity:1;stroke-miterlimit:10;" d="M 219.914062 156.960938 L 221.246094 170.519531 "/>
<path style="fill:none;stroke-width:1.2;stroke-linecap:butt;stroke-linejoin:miter;stroke:rgb(100%,0%,0%);stroke-opacity:1;stroke-miterlimit:10;" d="M 221.246094 170.519531 L 222.574219 184.074219 "/>
<path style="fill:none;stroke-width:1.2;stroke-linecap:butt;stroke-linejoin:miter;stroke:rgb(0%,0%,0%);stroke-opacity:1;stroke-miterlimit:10;" d="M 226.296875 156.335938 L 227.625 169.890625 "/>
<path style="fill:none;stroke-width:1.2;stroke-linecap:butt;stroke-linejoin:miter;stroke:rgb(100%,0%,0%);stroke-opacity:1;stroke-miterlimit:10;" d="M 227.625 169.890625 L 228.953125 183.449219 "/>
<path style="fill:none;stroke-width:1.2;stroke-linecap:butt;stroke-linejoin:miter;stroke:rgb(0%,0%,0%);stroke-opacity:1;stroke-miterlimit:10;" d="M 223.105469 156.648438 L 210.699219 151.019531 "/>
<path style="fill:none;stroke-width:1.2;stroke-linecap:butt;stroke-linejoin:miter;stroke:rgb(100%,0%,0%);stroke-opacity:1;stroke-miterlimit:10;" d="M 210.699219 151.019531 L 198.292969 145.394531 "/>
<path style=" stroke:none;fill-rule:nonzero;fill:rgb(100%,100%,100%);fill-opacity:1;" d="M 221.765625 177.261719 L 230.765625 177.261719 L 230.765625 190.261719 L 221.765625 190.261719 Z M 221.765625 177.261719 "/>
<g style="fill:rgb(100%,0%,0%);fill-opacity:1;">
  <use xlink:href="#glyph0-1" x="221.765625" y="187.163086"/>
</g>
<path style=" stroke:none;fill-rule:nonzero;fill:rgb(100%,100%,100%);fill-opacity:1;" d="M 194.292969 138.894531 L 203.292969 138.894531 L 203.292969 151.894531 L 194.292969 151.894531 Z M 194.292969 138.894531 "/>
<g style="fill:rgb(100%,0%,0%);fill-opacity:1;">
  <use xlink:href="#glyph0-1" x="194.292969" y="148.795898"/>
</g>
<path style=" stroke:none;fill-rule:nonzero;fill:rgb(100%,100%,100%);fill-opacity:1;" d="M 256.75 91.3125 L 273.75 91.3125 L 273.75 104.3125 L 256.75 104.3125 Z M 256.75 91.3125 "/>
<g style="fill:rgb(100%,0%,0%);fill-opacity:1;">
  <use xlink:href="#glyph0-1" x="256.75" y="101.213867"/>
  <use xlink:href="#glyph0-2" x="265.150391" y="101.213867"/>
</g>
</g>
</svg>

<svg xmlns="http://www.w3.org/2000/svg" xmlns:xlink="http://www.w3.org/1999/xlink" width="300pt" height="300pt" viewBox="0 0 300 300"><defs><symbol overflow="visible"><path d="M.547 1.938V-7.75h5.5v9.688zm.625-.61h4.266v-8.47H1.171zm0 0"/></symbol><symbol overflow="visible" id="a"><path d="M4.328-7.28c-.78 0-1.406.296-1.875.89-.46.585-.687 1.382-.687 2.39 0 1.012.226 1.813.687 2.406.47.586 1.094.875 1.875.875.79 0 1.414-.288 1.875-.874.457-.593.688-1.394.688-2.406 0-1.008-.23-1.805-.687-2.39-.46-.594-1.086-.89-1.875-.89zm0-.892c1.125 0 2.024.383 2.703 1.14C7.708-6.28 8.048-5.27 8.048-4c0 1.262-.34 2.273-1.016 3.03C6.353-.22 5.454.157 4.33.157S2.3-.22 1.625-.97c-.668-.75-1-1.757-1-3.03 0-1.27.332-2.28 1-3.03.676-.76 1.578-1.142 2.703-1.142zm0 0"/></symbol><symbol overflow="visible" id="b"><path d="M1.078-8.016h1.094v3.282H6.11v-3.282h1.077V0H6.11v-3.813H2.17V0H1.078zm0 0"/></symbol></defs><g><path fill="#fff" d="M0 0h300v300H0z"/><path d="M203.613 199.62L178.8 188.368M178.8 188.367L156.65 204.23M156.648 204.23l2.66 27.114M156.648 204.23l-24.812-11.253M129.973 190.367l-11.078 7.934" stroke-width="1.2" stroke="#000" stroke-miterlimit="10" fill="none"/><path d="M118.895 198.3l-11.075 7.93" stroke-width="1.2" stroke="#f00" stroke-miterlimit="10" fill="none"/><path d="M133.703 195.582l-11.074 7.93" stroke-width="1.2" stroke="#000" stroke-miterlimit="10" fill="none"/><path d="M122.63 203.512l-11.08 7.93" stroke-width="1.2" stroke="#f00" stroke-miterlimit="10" fill="none"/><path d="M131.836 192.977l-1.328-13.56" stroke-width="1.2" stroke="#000" stroke-miterlimit="10" fill="none"/><path d="M130.508 179.418l-1.332-13.56" stroke-width="1.2" stroke="#f00" stroke-miterlimit="10" fill="none"/><path d="M100.684 202.336h9v13h-9zm0 0" fill="#fff"/><use xlink:href="#a" x="100.684" y="212.237" fill="#f00"/><path d="M104.367 154.605l22.824 15.633 3.974-8.758zm0 0"/><path d="M125.176 159.36h9v13h-9zm0 0" fill="#fff"/><use xlink:href="#a" x="125.176" y="169.261" fill="#f00"/><path d="M104.367 154.605L82.215 170.47M101.707 127.492l2.66 27.113M82.215 170.47l-24.813-11.255M57.402 159.215l-2.66-27.117" stroke-width="1.2" stroke="#000" stroke-miterlimit="10" fill="none"/><path d="M57.402 159.215l-24.953 11.95 5.6 7.82zm0 0"/><path d="M54.742 132.098l22.153-15.86M60.69 135.727l17.72-12.692M76.895 116.238l24.812 11.254M74.234 89.125l2.66 27.113M101.707 127.492l22.152-15.86M123.86 111.633l-2.66-27.117" stroke-width="1.2" stroke="#000" stroke-miterlimit="10" fill="none"/><path d="M123.86 111.633m2.472 1.695l.434-.95m2.043 2.645l.862-1.902m1.613 3.6l1.29-2.853m1.183 4.543l1.722-3.797m.754 5.492l2.153-4.746m.324 6.44l2.583-5.695m-.11 7.39l3.016-6.643m-.54 8.34l3.445-7.594m-.968 9.29l3.875-8.548m-3.328 8.926l3.972-8.758" stroke="#000" stroke-miterlimit="10" fill="none"/><path d="M121.2 84.516L96.386 73.262" stroke-width="1.2" stroke="#000" stroke-miterlimit="10" fill="none"/><path d="M121.2 84.516m2.706-1.293l-.61-.852m3.313-.444l-1.215-1.696m3.92.4l-1.82-2.544m4.525 1.246l-2.426-3.39m5.133 2.093l-3.036-4.238m5.744 2.945l-3.645-5.09m6.347 3.793l-4.246-5.933m6.954 4.636l-4.856-6.78m7.563 5.484l-5.464-7.63m6.062 7.344l-5.597-7.82" stroke="#000" stroke-miterlimit="10" fill="none"/><path d="M96.387 73.262L74.234 89.125M97.902 80.063L80.184 92.75M148.672 122.887l22.152-15.864" stroke-width="1.2" stroke="#000" stroke-miterlimit="10" fill="none"/><path d="M195.633 118.277m-2.473-1.695l-.433.953m-2.043-2.648l-.86 1.902m-1.617-3.595l-1.29 2.848m-1.183-4.543l-1.722 3.797m-.754-5.492l-2.153 4.746m-.324-6.44l-2.58 5.695m.11-7.39l-3.017 6.644m.54-8.34l-3.446 7.593m.972-9.29l-3.88 8.547m3.33-8.925l-3.974 8.757" stroke="#000" stroke-miterlimit="10" fill="none"/><path d="M195.633 118.277l22.152-15.86" stroke-width="1.2" stroke="#000" stroke-miterlimit="10" fill="none"/><path d="M198.293 145.395l-1.328-13.56" stroke-width="1.2" stroke="#f00" stroke-miterlimit="10" fill="none"/><path d="M196.965 131.836l-1.332-13.56M217.785 102.418l24.813 11.254M242.598 113.672l2.66 27.113" stroke-width="1.2" stroke="#000" stroke-miterlimit="10" fill="none"/><path d="M242.598 113.672l24.953-11.95-5.6-7.82zm0 0"/><path d="M245.258 140.785l-22.153 15.863M219.914 156.96l1.332 13.56" stroke-width="1.2" stroke="#000" stroke-miterlimit="10" fill="none"/><path d="M221.246 170.52l1.328 13.554" stroke-width="1.2" stroke="#f00" stroke-miterlimit="10" fill="none"/><path d="M226.297 156.336l1.328 13.555" stroke-width="1.2" stroke="#000" stroke-miterlimit="10" fill="none"/><path d="M227.625 169.89l1.328 13.56" stroke-width="1.2" stroke="#f00" stroke-miterlimit="10" fill="none"/><path d="M223.105 156.648L210.7 151.02" stroke-width="1.2" stroke="#000" stroke-miterlimit="10" fill="none"/><path d="M210.7 151.02l-12.407-5.625" stroke-width="1.2" stroke="#f00" stroke-miterlimit="10" fill="none"/><path d="M221.766 177.262h9v13h-9zm0 0" fill="#fff"/><use xlink:href="#a" x="221.766" y="187.163" fill="#f00"/><path d="M194.293 138.895h9v13h-9zm0 0" fill="#fff"/><use xlink:href="#a" x="194.293" y="148.796" fill="#f00"/><path d="M256.75 91.313h17v13h-17zm0 0" fill="#fff"/><g fill="#f00"><use xlink:href="#a" x="256.75" y="101.214"/><use xlink:href="#b" x="265.15" y="101.214"/></g></g></svg>
